dist/images/service/2.svg

<svg width="76" height="59" viewBox="0 0 76 59" fill="none" xmlns="http://www.w3.org/2000/svg">
<path d="M38.2457 58.1176C34.4493 58.1176 31.3613 55.0329 31.3613 51.2414C31.3613 47.449 34.4493 44.3643 38.2457 44.3643C42.0457 44.3643 45.1364 47.449 45.1364 51.2414C45.1364 55.0329 42.0457 58.1176 38.2457 58.1176ZM38.2457 47.029C35.9204 47.029 34.028 48.9185 34.028 51.2423C34.028 53.5651 35.9195 55.4547 38.2457 55.4547C40.5755 55.4547 42.4697 53.5651 42.4697 51.2423C42.4697 48.9185 40.5755 47.029 38.2457 47.029Z" fill="#0038FF"/>
<path d="M20.985 38.8164C20.7094 38.8164 20.4321 38.732 20.1939 38.5562C19.601 38.1193 19.4756 37.2856 19.9139 36.6933C24.1983 30.895 31.0525 27.4338 38.248 27.4338C45.224 27.4338 51.7191 30.5647 56.0702 36.0247C56.5288 36.6001 56.4337 37.4383 55.8568 37.8965C55.2817 38.3555 54.4426 38.2588 53.9831 37.6834C50.1422 32.8618 44.4062 30.0977 38.248 30.0977C31.8009 30.0977 25.8996 33.0785 22.0587 38.2756C21.7965 38.6299 21.393 38.8164 20.985 38.8164Z" fill="#0038FF"/>
<path d="M10.4711 28.637C10.1724 28.637 9.87111 28.5367 9.62222 28.3316C9.05511 27.8627 8.97511 27.0236 9.44444 26.4562C16.5795 17.837 27.0773 12.8938 38.2461 12.8938C49.0745 12.8938 59.3536 17.5804 66.4478 25.7503C66.9295 26.3062 66.8709 27.1471 66.3144 27.6292C65.7589 28.1105 64.9162 28.051 64.4336 27.496C57.846 19.9086 48.3021 15.5576 38.247 15.5576C27.8764 15.5576 18.1271 20.1483 11.4995 28.154C11.2364 28.4728 10.8551 28.637 10.4711 28.637Z" fill="#0038FF"/>
<path d="M1.33265 19.4859C1.02243 19.4859 0.711321 19.3785 0.458878 19.16C-0.0966755 18.6779 -0.156231 17.8361 0.326434 17.2812C9.87128 6.29907 23.6935 0 38.2472 0C52.4987 0 66.1351 6.0833 75.6595 16.6889C76.151 17.2368 76.1048 18.0785 75.5572 18.5696C75.0097 19.0606 74.167 19.0153 73.6746 18.4674C64.6551 8.42392 51.7431 2.66383 38.2481 2.66383C24.4677 2.66383 11.3797 8.62814 2.34154 19.0277C2.07576 19.3305 1.7051 19.4859 1.33265 19.4859Z" fill="#0038FF"/>
</svg>

<svg width="76" height="59" fill="none" xmlns="http://www.w3.org/2000/svg"><path d="M38.246 58.118c-3.797 0-6.885-3.085-6.885-6.877s3.088-6.877 6.885-6.877c3.8 0 6.89 3.085 6.89 6.877s-3.09 6.877-6.89 6.877zm0-11.089a4.22 4.22 0 00-4.218 4.213 4.22 4.22 0 004.218 4.213c2.33 0 4.224-1.89 4.224-4.213a4.223 4.223 0 00-4.224-4.213zm-17.261-8.213a1.33 1.33 0 01-1.071-2.123c4.284-5.798 11.139-9.26 18.334-9.26 6.976 0 13.471 3.132 17.822 8.592a1.334 1.334 0 01-2.087 1.659 20.016 20.016 0 00-15.735-7.586c-6.447 0-12.348 2.98-16.19 8.178a1.33 1.33 0 01-1.073.54z" fill="#0038FF"/><path d="M10.471 28.637a1.332 1.332 0 01-1.027-2.18c7.135-8.62 17.633-13.563 28.802-13.563A37.331 37.331 0 0166.448 25.75a1.331 1.331 0 01-.134 1.88 1.336 1.336 0 01-1.88-.134 34.66 34.66 0 00-26.187-11.938c-10.37 0-20.12 4.59-26.748 12.596a1.33 1.33 0 01-1.028.483z" fill="#0038FF"/><path d="M1.333 19.486A1.33 1.33 0 01.326 17.28 50.221 50.221 0 0138.247 0 50.354 50.354 0 0175.66 16.689a1.331 1.331 0 11-1.984 1.778A47.68 47.68 0 0038.248 2.664 47.552 47.552 0 002.342 19.028a1.34 1.34 0 01-1.01.458z" fill="#0038FF"/></svg>
